B/src/images/icons/speed.svg

<svg viewBox="0 0 96.78 73.32" xmlns="http://www.w3.org/2000/svg"><path d="m76.7 66.52-19.9-16.52a8.82 8.82 0 0 0 -13-10c-4.47-3.42-8.54-6.48-8.54-6.48l-4.26 2.48-.07 5.12s4 2.52 8.63 5.42a8.82 8.82 0 0 0 13.57 8.46z" fill="#60c091"/><g fill="none" stroke="#60c091" stroke-miterlimit="10" stroke-width="3"><path d="m1.52 46.91v1.42a46.69 46.69 0 0 0 6.72 24.22"/><path d="m14.45 16a46.8 46.8 0 0 0 -12.4 25.1"/><path d="m44.59 1.59a46.7 46.7 0 0 0 -26.33 10.81"/><path d="m78.53 12.41a46.62 46.62 0 0 0 -27.76-10.91"/><path d="m94.73 41.1a46.79 46.79 0 0 0 -12.54-25.27"/><path d="m88.83 72.06a46.68 46.68 0 0 0 6.45-23.73c0-.48 0-.95 0-1.42"/></g></svg>

<svg xmlns="http://www.w3.org/2000/svg" viewBox="0 0 96.78 73.32"><defs><style>.cls-1{fill:#60c091;}.cls-2{fill:none;stroke:#60c091;stroke-miterlimit:10;stroke-width:3px;}</style></defs><title>speed</title><g id="Layer_2" data-name="Layer 2"><g id="Layer_1-2" data-name="Layer 1"><g id="speed_o_m" data-name="speed o m"><path id="Path_194" data-name="Path 194" class="cls-1" d="M76.7,66.52,56.8,50a8.82,8.82,0,0,0-13-10c-4.47-3.42-8.54-6.48-8.54-6.48L31,36l-.07,5.12s4,2.52,8.63,5.42A8.82,8.82,0,0,0,53.13,55Z"/><path id="Path_195" data-name="Path 195" class="cls-2" d="M1.52,46.91c0,.47,0,.94,0,1.42A46.69,46.69,0,0,0,8.24,72.55"/><path id="Path_196" data-name="Path 196" class="cls-2" d="M14.45,16A46.8,46.8,0,0,0,2.05,41.1"/><path id="Path_197" data-name="Path 197" class="cls-2" d="M44.59,1.59A46.7,46.7,0,0,0,18.26,12.4"/><path id="Path_198" data-name="Path 198" class="cls-2" d="M78.53,12.41A46.62,46.62,0,0,0,50.77,1.5"/><path id="Path_199" data-name="Path 199" class="cls-2" d="M94.73,41.1A46.79,46.79,0,0,0,82.19,15.83"/><path id="Path_200" data-name="Path 200" class="cls-2" d="M88.83,72.06a46.68,46.68,0,0,0,6.45-23.73c0-.48,0-.95,0-1.42"/></g></g></g></svg>
